material/.icons/material/view-day.svg

<svg xmlns="http://www.w3.org/2000/svg" viewBox="0 0 24 24"><path d="M2 3v3h19V3m-1 5H3a1 1 0 00-1 1v6a1 1 0 001 1h17a1 1 0 001-1V9a1 1 0 00-1-1M2 21h19v-3H2v3z"/></svg>

<?xml version="1.0" encoding="UTF-8"?><!DOCTYPE svg PUBLIC "-//W3C//DTD SVG 1.1//EN" "http://www.w3.org/Graphics/SVG/1.1/DTD/svg11.dtd"><svg xmlns="http://www.w3.org/2000/svg" xmlns:xlink="http://www.w3.org/1999/xlink" version="1.1" id="mdi-view-day" width="24" height="24" viewBox="0 0 24 24"><path d="M2,3V6H21V3M20,8H3A1,1 0 0,0 2,9V15A1,1 0 0,0 3,16H20A1,1 0 0,0 21,15V9A1,1 0 0,0 20,8M2,21H21V18H2V21Z" /></svg>
